X: 1
T: Polska fr\aan Boda
O: Bengt Jonsson
R: Boda-polska
Z: John Chambers <jc@trillian.mit.edu>
N: The ~ ornament is an inverted mordent here.
M: 3/4
L: 1/8
K: DDor
(A \
| d)>(^c A2) (~c>e \
| {d^c}d)>(e ~f2) ({f}a2 \
| Tg)>(e ~f2) e>d \
| ~^c2 A3 (A \
| d)>(^c A2) (~c>e |
| {d^c}d)>(e ~f2) ({f}a2 \
| ~g)>(e Tf2) e>d \
| ~^c2 d3 :|\
|: (A \
| d)>(g b)>(a Tg>e) \
| f>(a Tg>e) f>d |
| ^c>(a Tg>e) f>d \
| ~^c2 A3 (A \
| d)>(g b)>(a Tg>e) \
| f>(a g/>a/g/e/) f>d \
| ^c>(a Tg>e) f>d \
| ~^c2 d3 :|
